X:1
T:Telebe (piano)
T:Tələbə - Elmira Rəhimova
T:Notlara yığdı: Müşfiq Abdullayev
C:senuber esgerli
%%score { 1 | 2 }
L:1/8
Q:1/4=140
M:4/4
K:F
V:1 treble nm="Instrument 1"
V:2 bass 
V:1
!mf!{AB=B} c2 c2 A T_B2 A!f! | c2 cA B3 A | ABAB AGBA | !>![B,DG]8 | B2 B2 G A2 G | B2 BG A3 G | %6
 GAGA GFAG | [A,CF]8 | c2 c2 A B2 A | c2 cA B3 A | ABAB AGB[Ac] | [DGB]8 | B2 B2 G A2 G | %13
 B2 BG A3 G | [CG]AGA GFAG | [A,CF]8 |: C2 A2 A2 A2 | GF G2 F4 | EF E2 FG F2 | GA G6 | %20
 C2 G2 G2 G2 | FE F2 E4 | DE D2 EF E2 |1 [A,CF]G F6 :|2 [A,CF]G F6 || z8 |] %26
V:2
 F,,2 [F,A,C]C, F,, [F,A,C]2 C, | F,,2 [F,A,C]C, F,,[F,A,C] C,F,, | %2
 F,,2 [F,A,C]C, F,,[F,A,C]C,F,, | G,,2 [G,B,D]D, G,, [G,B,D]2 D, | C,,2 [E,G,C]C, C,,[E,G,C]C,G,, | %5
 C,,2 [E,G,C]C, C,,[E,G,C]C,G,, | C,,2 [E,G,C]C, C,,[E,G,C]C,G,, | %7
 F,,2 [F,A,C]C, F,,[F,A,C]!16!C,F,, | [F,A,C]2 [F,A,C]C, F,,[F,A,C]C,A,, | %9
 F,,2 [F,A,C]C, F,,[F,A,C]C,A,, | F,,2 [F,A,C]C, A,,[F,A,C]F,,C, | G,,2 [F,B,D]D, G,, [F,B,D]2 D, | %12
 C,,2 [E,G,C]C, C,,[E,G,C]C,G,, | C,,2 [E,G,C]C, C,,[E,G,C]C,G,, | %14
 [C,,G,,]2 [E,G,C]C, G,,[E,G,C]C,G,, | F,,2 [F,A,C]C, F,,[F,A,C]C,!30!F,, |: %16
 C,,2 [F,A,C]C, F,,[F,A,C]C,A,, | F,,2 [F,A,C]C, F,,[F,A,C]C,[F,,G,,] | %18
 C,,2 [E,G,C]C, C,,[E,G,C] C,2 | G,,2 [G,B,D]D, G,,[G,B,D]D,!37!G,, | %20
 C,,2 [E,G,C]C, G,,[E,G,C]C,G,, | C,,2 [E,G,C]C, G,,[E,G,C]C,G,, | %22
 C,,2 [E,G,C]C, C,,[E,G,C]C,C,, |1 F,,2 [F,A,C]C, F,,[F,A,C]C,F,, :|2 %24
 F,,2 [F,A,C] F,,2 [F,A,C] F,,2 || [F,A,C]8 |] %26

